packages/icons/svg/Universe_Kitchen2_64px.svg

<svg xmlns="http://www.w3.org/2000/svg" viewBox="0 0 64 64"><path d="M53 9H11a2 2 0 00-2 2v42a2 2 0 002 2h42a2 2 0 002-2V11a2 2 0 00-2-2zm-1 43H12V18h40zm0-36H12v-4h40z"/><path d="M18 48h28a2 2 0 002-2V28a2 2 0 00-2-2H18a2 2 0 00-2 2v18a2 2 0 002 2zm0-20h28v18H18zM21 20h22v2H21z"/><circle cx="17" cy="14" r="1"/><circle cx="24" cy="14" r="1"/><circle cx="40" cy="14" r="1"/><circle cx="47" cy="14" r="1"/><path d="M31 15h2a1 1 0 000-2h-2a1 1 0 000 2z"/></svg>

<svg xmlns="http://www.w3.org/2000/svg" viewBox="0 0 64 64"><defs></defs><g id="Icon"><path  d="M53,9H11a2,2,0,0,0-2,2V53a2,2,0,0,0,2,2H53a2,2,0,0,0,2-2V11A2,2,0,0,0,53,9ZM52,52H12V18H52Zm0-36H12V12H52Z"/><path  d="M18,48H46a2,2,0,0,0,2-2V28a2,2,0,0,0-2-2H18a2,2,0,0,0-2,2V46A2,2,0,0,0,18,48Zm0-20H46V46H18Z"/><rect  x="21" y="20" width="22" height="2"/><circle  cx="17" cy="14" r="1"/><circle  cx="24" cy="14" r="1"/><circle  cx="40" cy="14" r="1"/><circle  cx="47" cy="14" r="1"/><path  d="M31,15h2a1,1,0,0,0,0-2H31a1,1,0,0,0,0,2Z"/></g></svg>
